img/about/skill_sass.svg

<svg height="40" viewBox="0 0 40 40" width="40" xmlns="http://www.w3.org/2000/svg"><g fill="none" fill-rule="evenodd"><path d="m34.4431328 22.2458279c-1.3954757.0073067-2.6082975.3434167-3.6238532.8402748-.3726139-.7379805-.7452278-1.3955868-.8109832-1.8778315-.0730616-.5626188-.1607355-.9060355-.0730616-1.5782553.0876739-.6722199.4822063-1.6294025.4749001-1.7024699-.0073061-.0730674-.0876738-.416484-.8913509-.4237908-.8036772-.0073067-1.4977619.1534415-1.5781296.3653369-.0803678.2118954-.233797.6941401-.3360832 1.1909982-.138817.7306738-1.6073542 3.3391791-2.4475621 4.705539-.2703278-.5333918-.5041247-1.001023-.5552678-1.3736666-.0730616-.5626188-.1607354-.9060355-.0730616-1.5782554.0876739-.6722198.4822063-1.6294024.4749001-1.7024698-.0073061-.0730674-.0876738-.4164841-.8913509-.4237908s-1.4977619.1534415-1.5781296.3653369-.1680416.7087535-.3360832 1.1909982-2.1187851 4.8370603-2.630216 5.9622979c-.2630216.5772322-.4895124 1.0375567-.6502478 1.3517464s-.0073062.0219202-.0292246.0584539c-.138817.2703493-.2191847.4164841-.2191847.4164841v.0073067c-.1095923.1972819-.2264908.3799504-.2849401.3799504-.0438369 0-.1242046-.5260851.0146123-1.2421454.2922463-1.5124947.986331-3.8652642.9790249-3.9456383 0-.0438404.1315108-.4530177-.4529817-.6649131-.5698801-.2118954-.7744524.138828-.8255955.138828s-.0876739.1242145-.0876739.1242145.6356355-2.645039-1.2128218-2.645039c-1.1543726 0-2.7471145 1.2640656-3.5361793 2.4039167-.4968186.2703493-1.5562111.8475815-2.6886652 1.4686542-.4310632.2411224-.87673869.4822447-1.29318956.7087536-.02922462-.029227-.05844924-.0657607-.08767387-.0949876-2.23568359-2.3893032-6.37096762-4.0771596-6.19561988-7.2848174.0657554-1.169078.46759395-4.2379078 7.94179101-7.96434393 6.151783-3.0322961 11.0469072-2.19202128 11.8944212-.3288032 1.2128219 2.65965253-2.6229098 7.59900713-8.9792651 8.31506733-2.4256436.2703493-3.6969147-.6649131-4.01838554-1.0156365-.33608315-.3653369-.38722624-.3872571-.51143089-.3141897-.20457235.1096011-.07306155.4384043 0 .6283794.18996005.4968582.97171873 1.3736667 2.29413283 1.8047642 1.1689849.3799504 4.0110794.5918458 7.4522786-.7379805 3.850344-1.4905745 6.8604801-5.6334947 5.9764353-9.10419501-.8840449-3.52184751-6.7289693-4.68361878-12.259729-2.71810637-3.28776999 1.16907801-6.85317389 3.01037588-9.41763448 5.40698578-3.04666686 2.8496277-3.52887312 5.3266117-3.33160692 6.3641685.70869709 3.6825957 5.78647518 6.0792056 7.81758641 7.8547428-.10228617.0584539-.1972662.1096011-.27763391.1534415-1.01555562.5041649-4.88781804 2.5281312-5.85223057 4.6690053-1.09592333 2.4258369.17534773 4.1648405 1.01555561 4.3986561 2.60829753.723367 5.28965661-.5772323 6.72896924-2.7254131 1.43931262-2.1481809 1.26396492-4.9393547.59910472-6.2180337-.0073061-.0146135-.0146123-.029227-.0292246-.0438405.2630216-.1534414.5333494-.3141897.796371-.4676312.518737-.3068829 1.0301679-.5918457 1.4685372-.8256613-.2484093.6795266-.4310631 1.4905745-.518737 2.6596525-.1095923 1.3736666.4529816 3.1565106 1.1909033 3.8579574.328777.306883.7160033.3141897.9644126.3141897.8621263 0 1.2493526-.7160603 1.6804157-1.5636418.5260432-1.0375567 1.0009433-2.2431684 1.0009433-2.2431684s-.5917986 3.2588049 1.0155557 3.2588049c.5844924 0 1.176291-.7599007 1.4393126-1.1471578v.0073068s.0146123-.0219203.0438369-.0730674c.0584493-.0949876.0949801-.1534415.0949801-.1534415s0-.0073068 0-.0146135c.2337969-.4091773.7598401-1.337133 1.5415988-2.8788546 1.0082494-1.9874326 1.9799681-4.4717234 1.9799681-4.4717234s.0876739.6064592.3872263 1.614789c.1753477.5918458.5406555 1.2421454.8329017 1.8705248-.233797.3288032-.3799201.5114717-.3799201.5114717s0 0 .0073062.0073067c-.1899601.2484291-.3945324.5187784-.6210233.7818209-.7963709.9498759-1.7461711 2.0385798-1.8776819 2.3527695-.1534293.3726436-.1168985.6429929.1753477.8621951.2118785.1607482.5917986.1826684.9790248.1607482.7160033-.0511472 1.220128-.2265089 1.4685373-.3361099.3872262-.1388281.8402079-.3507235 1.2639649-.6649132.7817587-.5772322 1.2566588-1.4028936 1.2128218-2.4915975-.0219184-.5991525-.2191846-1.1983049-.4602878-1.7609237.0730616-.1022944.138817-.2045887.2118785-.306883 1.2347403-1.8047642 2.1918467-3.7848901 2.1918467-3.7848901s.0876739.6064592.3872262 1.614789c.1461232.5114717.4456755 1.0667837.7086971 1.6074823-1.1616787.9425691-1.8776819 2.0385798-2.1333974 2.7546401-.4602878 1.3298262-.1022862 1.9289787.5771863 2.0678067.3068585.0657606.7452279-.0803741 1.0666987-.2192021.4091447-.1315213.891351-.3580302 1.3516388-.6941401.7817586-.5772323 1.5342926-1.3809734 1.4904557-2.4696773-.0219185-.4968582-.1534293-.9864096-.3360831-1.4613475.986331-.4091773 2.257602-.6356862 3.8795685-.445711 3.4777301.4091773 4.1645087 2.5792784 4.0329979 3.4926205-.1315108.9133422-.8621264 1.4102004-1.1032295 1.5636419s-.3214708.2045886-.2995524.3141897c.0292247.1607482.1461231.1534415.3506955.1242145.2849401-.0511471 1.8265389-.7379805 1.8922943-2.4185301.1095923-2.1481808-1.9361312-4.4936436-5.5526782-4.4717234zm-26.82820312 9.0457411c-1.15437257 1.2567589-2.76172679 1.7316968-3.45581156 1.3298263-.74522787-.4310975-.45298165-2.2870089.96441253-3.6168351.86212635-.8110479 1.97266199-1.5636419 2.7105837-2.0239663.16804157-.1022944.41645086-.2484291.71600324-.4310976.05114309-.0292269.08036771-.0438404.08036771-.0438404.05844924-.0365337.11689849-.0730674.17534773-.109601.51873704 1.8997517.02191847 3.5729946-1.19090335 4.8955141zm8.40207882-5.7138688c-.4018385.9791029-1.2420464 3.4853139-1.7534773 3.3464859-.4383693-.1169078-.7086971-2.0166596-.0876739-3.8944912.3141647-.9425691.9790249-2.0678067 1.3662511-2.506211.6283294-.7014468 1.3224142-.9352624 1.4904558-.6502996.2118785.3726436-.7671464 3.09075-1.0155557 3.7045159zm6.9335416 3.3172589c-.1680415.0876809-.328777.1461348-.4018385.1022943-.0511431-.0292269.0730615-.1461347.0730615-.1461347s.8694325-.9352624 1.2128219-1.3590532c.1972661-.2484291.4310631-.5406986.6794724-.8695018v.0949876c0 1.1179309-1.081311 1.8705248-1.5635173 2.1774078zm5.3481059-1.2202252c-.1242047-.0876808-.1022862-.3799503.3141647-1.2932925.1607354-.3580302.5406555-.9571826 1.1909033-1.5344149.0730616.2338156.1242047.4603245.1168985.6722198-.0073062 1.4102004-1.0155556 1.9362855-1.6219665 2.1554876z" fill="#cd6799" fill-rule="nonzero"/><path d="m0 0h40v40h-40z"/></g></svg>

<svg xmlns="http://www.w3.org/2000/svg" width="40" height="40" viewBox="0 0 40 40">
  <g fill="none" fill-rule="evenodd">
    <path fill="#CD6799" fill-rule="nonzero" d="M34.4431328,22.2458279 C33.0476571,22.2531346 31.8348353,22.5892446 30.8192796,23.0861027 C30.4466657,22.3481222 30.0740518,21.6905159 30.0082964,21.2082712 C29.9352348,20.6456524 29.8475609,20.3022357 29.9352348,19.6300159 C30.0229087,18.957796 30.4174411,18.0006134 30.4101349,17.927546 C30.4028288,17.8544786 30.3224611,17.511062 29.518784,17.5037552 C28.7151068,17.4964485 28.0210221,17.6571967 27.9406544,17.8690921 C27.8602866,18.0809875 27.7068574,18.5632322 27.6045712,19.0600903 C27.4657542,19.7907641 25.997217,22.3992694 25.1570091,23.7656293 C24.8866813,23.2322375 24.6528844,22.7646063 24.6017413,22.3919627 C24.5286797,21.8293439 24.4410059,21.4859272 24.5286797,20.8137073 C24.6163536,20.1414875 25.010886,19.1843049 25.0035798,19.1112375 C24.9962737,19.0381701 24.915906,18.6947534 24.1122289,18.6874467 C23.3085518,18.68014 22.614467,18.8408882 22.5340993,19.0527836 C22.4537316,19.264679 22.3660577,19.7615371 22.1980161,20.2437818 C22.0299745,20.7260265 20.079231,25.0808421 19.5678001,26.2060797 C19.3047785,26.7833119 19.0782877,27.2436364 18.9175523,27.5578261 C18.9175523,27.5578261 18.9175523,27.5578261 18.9175523,27.5578261 C18.9175523,27.5578261 18.9102461,27.5797463 18.8883277,27.61628 C18.7495107,27.8866293 18.669143,28.0327641 18.669143,28.0327641 C18.669143,28.0327641 18.669143,28.0327641 18.669143,28.0400708 C18.5595507,28.2373527 18.4426522,28.4200212 18.3842029,28.4200212 C18.340366,28.4200212 18.2599983,27.8939361 18.3988152,27.1778758 C18.6910615,25.6653811 19.3851462,23.3126116 19.3778401,23.2322375 C19.3778401,23.1883971 19.5093509,22.7792198 18.9248584,22.5673244 C18.3549783,22.355429 18.150406,22.7061524 18.0992629,22.7061524 C18.0481198,22.7061524 18.011589,22.8303669 18.011589,22.8303669 C18.011589,22.8303669 18.6472245,20.1853279 16.7987672,20.1853279 C15.6443946,20.1853279 14.0516527,21.4493935 13.2625879,22.5892446 C12.7657693,22.8595939 11.7063768,23.4368261 10.5739227,24.0578988 C10.1428595,24.2990212 9.69718401,24.5401435 9.28073314,24.7666524 C9.25150852,24.7374254 9.2222839,24.7008917 9.19305927,24.6716648 C6.95737568,22.2823616 2.82209165,20.5945052 2.99743939,17.3868474 C3.06319479,16.2177694 3.46503334,13.1489396 10.9392304,9.42250347 C17.0910134,6.39020737 21.9861376,7.23048219 22.8336516,9.09370027 C24.0464735,11.7533528 20.2107418,16.6927074 13.8543865,17.4087676 C11.4287429,17.6791169 10.1574718,16.7438545 9.83600096,16.3931311 C9.49991781,16.0277942 9.44877472,16.005874 9.32457007,16.0789414 C9.11999772,16.1885425 9.25150852,16.5173457 9.32457007,16.7073208 C9.51453012,17.204179 10.2962888,18.0809875 11.6187029,18.512085 C12.7876878,18.8920354 15.6297823,19.1039308 19.0709815,17.7741045 C22.9213255,16.28353 25.9314616,12.1406098 25.0474168,8.66990949 C24.1633719,5.14806198 18.3184475,3.98629071 12.7876878,5.95180312 C9.49991781,7.12088113 5.93451391,8.962179 3.37005332,11.3587889 C0.323386464,14.2084166 -0.1588198,16.6854006 0.0384463988,17.7229574 C0.747143485,21.4055531 5.82492158,23.802163 7.85603281,25.5777002 C7.75374664,25.6361541 7.65876661,25.6873013 7.5783989,25.7311417 C6.56284328,26.2353066 2.69058086,28.2592729 1.72616833,30.400147 C0.630244997,32.8259839 1.90151606,34.5649875 2.74172394,34.7988031 C5.35002147,35.5221701 8.03138055,34.2215708 9.47069318,32.07339 C10.9100058,29.9252091 10.7346581,27.1340353 10.0697979,25.8553563 C10.0624918,25.8407428 10.0551856,25.8261293 10.0405733,25.8115158 C10.3035949,25.6580744 10.5739227,25.4973261 10.8369443,25.3438846 C11.3556813,25.0370017 11.8671122,24.7520389 12.3054815,24.5182233 C12.0570722,25.1977499 11.8744184,26.0087978 11.7867445,27.1778758 C11.6771522,28.5515424 12.2397261,30.3343864 12.9776478,31.0358332 C13.3064248,31.3427162 13.6936511,31.3500229 13.9420604,31.3500229 C14.8041867,31.3500229 15.191413,30.6339626 15.6224761,29.7863811 C16.1485193,28.7488244 16.6234194,27.5432127 16.6234194,27.5432127 C16.6234194,27.5432127 16.0316208,30.8020176 17.6389751,30.8020176 C18.2234675,30.8020176 18.8152661,30.0421169 19.0782877,29.6548598 C19.0782877,29.6621666 19.0782877,29.6621666 19.0782877,29.6621666 C19.0782877,29.6621666 19.0929,29.6402463 19.1221246,29.5890992 C19.1805739,29.4941116 19.2171047,29.4356577 19.2171047,29.4356577 C19.2171047,29.4356577 19.2171047,29.4283509 19.2171047,29.4210442 C19.4509016,29.0118669 19.9769448,28.0839112 20.7587035,26.5421896 C21.7669529,24.554757 22.7386716,22.0704662 22.7386716,22.0704662 C22.7386716,22.0704662 22.8263455,22.6769254 23.1258979,23.6852552 C23.3012456,24.277101 23.6665534,24.9274006 23.9587996,25.55578 C23.7250026,25.8845832 23.5788795,26.0672517 23.5788795,26.0672517 C23.5788795,26.0672517 23.5788795,26.0672517 23.5861857,26.0745584 C23.3962256,26.3229875 23.1916533,26.5933368 22.9651624,26.8563793 C22.1687915,27.8062552 21.2189913,28.8949591 21.0874805,29.2091488 C20.9340512,29.5817924 20.970582,29.8521417 21.2628282,30.0713439 C21.4747067,30.2320921 21.8546268,30.2540123 22.241853,30.2320921 C22.9578563,30.1809449 23.461981,30.0055832 23.7103903,29.8959822 C24.0976165,29.7571541 24.5505982,29.5452587 24.9743552,29.231069 C25.7561139,28.6538368 26.231014,27.8281754 26.187177,26.7394715 C26.1652586,26.140319 25.9679924,25.5411666 25.7268892,24.9785478 C25.7999508,24.8762534 25.8657062,24.7739591 25.9387677,24.6716648 C27.173508,22.8669006 28.1306144,20.8867747 28.1306144,20.8867747 C28.1306144,20.8867747 28.2182883,21.4932339 28.5178406,22.5015637 C28.6639638,23.0130354 28.9635161,23.5683474 29.2265377,24.109046 C28.064859,25.0516151 27.3488558,26.1476258 27.0931403,26.8636861 C26.6328525,28.1935123 26.9908541,28.7926648 27.6703266,28.9314928 C27.9771851,28.9972534 28.4155545,28.8511187 28.7370253,28.7122907 C29.14617,28.5807694 29.6283763,28.3542605 30.0886641,28.0181506 C30.8704227,27.4409183 31.6229567,26.6371772 31.5791198,25.5484733 C31.5572013,25.0516151 31.4256905,24.5620637 31.2430367,24.0871258 C32.2293677,23.6779485 33.5006387,23.4514396 35.1226052,23.6414148 C38.6003353,24.0505921 39.2871139,26.2206932 39.1556031,27.1340353 C39.0240923,28.0473775 38.2934767,28.5442357 38.0523736,28.6976772 C37.8112705,28.8511187 37.7309028,28.9022658 37.7528212,29.0118669 C37.7820459,29.1726151 37.8989443,29.1653084 38.1035167,29.1360814 C38.3884568,29.0849343 39.9300556,28.3981009 39.995811,26.7175513 C40.1054033,24.5693705 38.0596798,22.2239077 34.4431328,22.2458279 Z M7.61492968,31.291569 C6.46055711,32.5483279 4.85320289,33.0232658 4.15911812,32.6213953 C3.41389025,32.1902978 3.70613647,30.3343864 5.12353065,29.0045602 C5.985657,28.1935123 7.09619264,27.4409183 7.83411435,26.9805939 C8.00215592,26.8782995 8.25056521,26.7321648 8.55011759,26.5494963 C8.60126068,26.5202694 8.6304853,26.5056559 8.6304853,26.5056559 L8.6304853,26.5056559 C8.68893454,26.4691222 8.74738379,26.4325885 8.80583303,26.3960549 C9.32457007,28.2958066 8.8277515,29.9690495 7.61492968,31.291569 Z M16.0170085,25.5777002 C15.61517,26.5568031 14.7749621,29.0630141 14.2635312,28.9241861 C13.8251619,28.8072783 13.5548341,26.9075265 14.1758573,25.0296949 C14.490022,24.0871258 15.1548822,22.9618882 15.5421084,22.5234839 C16.1704378,21.8220371 16.8645226,21.5882215 17.0325642,21.8731843 C17.2444427,22.2458279 16.2654178,24.9639343 16.0170085,25.5777002 Z M22.9505501,28.8949591 C22.7825086,28.98264 22.6217731,29.0410939 22.5487116,28.9972534 C22.4975685,28.9680265 22.6217731,28.8511187 22.6217731,28.8511187 C22.6217731,28.8511187 23.4912056,27.9158563 23.834595,27.4920655 C24.0318611,27.2436364 24.2656581,26.9513669 24.5140674,26.6225637 C24.5140674,26.6517907 24.5140674,26.6883244 24.5140674,26.7175513 C24.5140674,27.8354822 23.4327564,28.5880761 22.9505501,28.8949591 Z M28.298656,27.6747339 C28.1744513,27.5870531 28.1963698,27.2947836 28.6128207,26.3814414 C28.7735561,26.0234112 29.1534762,25.4242588 29.803724,24.8470265 C29.8767856,25.0808421 29.9279287,25.307351 29.9206225,25.5192463 C29.9133163,26.9294467 28.9050669,27.4555318 28.298656,27.6747339 Z"/>
    <rect width="40" height="40"/>
  </g>
</svg>
